assets/facce/kevin.svg

<svg width="113" height="141" viewBox="0 0 113 141" fill="none" xmlns="http://www.w3.org/2000/svg">
<path d="M24.9188 125.104C17.2167 115.65 16.7006 108.02 14.608 95.9474C14.191 93.5419 13.9213 90.947 13.7673 88.2543C10.3392 90.3041 3.16641 91.4487 1.89991 79.6281C0.316795 64.8524 0.316796 63.797 6.12156 61.6861C10.7654 59.9975 13.7141 62.7191 14.608 64.291C15.5334 55.2576 16.7634 48.5126 16.7634 48.5126C16.7634 48.5126 45.5468 21.9982 65.7998 27.0015C78.689 30.1857 96.0485 46.2295 96.0485 46.2295C96.0485 46.2295 97.6967 54.2991 98.7632 64.291C102.887 61.6637 111.24 59.0476 111.663 69.6017C112.19 82.7944 109.658 90.71 104.275 90.71C99.9685 90.71 99.1517 88.2669 99.2817 87.0454C97.7743 101.336 97.1262 108.557 87.4267 122.897C79.3289 134.87 68.9544 140.17 54.5562 139.996C41.193 139.834 33.478 135.609 24.9188 125.104Z" fill="white"/>
<path d="M99.2817 87.0454C97.7743 101.336 97.1262 108.557 87.4267 122.897C79.3289 134.87 68.9544 140.17 54.5562 139.996C41.193 139.834 33.478 135.609 24.9188 125.104C17.2167 115.65 16.7006 108.02 14.608 95.9474C14.191 93.5419 13.9213 90.947 13.7673 88.2543M99.2817 87.0454C100.019 80.0559 99.5489 71.6518 98.7632 64.291M99.2817 87.0454C99.1517 88.2669 99.9685 90.7099 104.275 90.7099C109.658 90.7099 112.19 82.7944 111.663 69.6017C111.24 59.0476 102.887 61.6637 98.7632 64.291M13.7673 88.2543C10.3392 90.3041 3.16641 91.4487 1.89991 79.6281C0.316795 64.8524 0.316796 63.797 6.12156 61.6862C10.7654 59.9975 13.7141 62.7191 14.608 64.291M13.7673 88.2543C13.3144 80.3351 13.8623 71.5701 14.608 64.291M14.608 64.291C15.5334 55.2576 16.7634 48.5126 16.7634 48.5126C16.7634 48.5126 45.5468 21.9982 65.7998 27.0015C78.689 30.1857 96.0485 46.2295 96.0485 46.2295C96.0485 46.2295 97.6967 54.2991 98.7632 64.291" stroke="black" stroke-width="2" stroke-linecap="round" stroke-linejoin="round"/>
<path d="M67.6579 63.5909L66.5547 66.0868H87.515L69.8642 59.4678L67.6579 63.5909Z" fill="black" stroke="black" stroke-linecap="round" stroke-linejoin="round"/>
<path d="M40.0785 62.4883L41.1816 64.9843H20.2213L37.8721 58.3652L40.0785 62.4883Z" fill="black" stroke="black" stroke-linecap="round" stroke-linejoin="round"/>
<path d="M22.4277 75.2019C22.4277 75.2019 41.4139 70.5635 42.8365 78.5114C43.1021 79.9957 42.8365 81.8209 42.8365 81.8209" stroke="black" stroke-width="2" stroke-linecap="round" stroke-linejoin="round"/>
<path d="M87.6338 75.4441C87.6338 75.4441 68.6477 70.8057 67.2251 78.7536C66.9594 80.2378 67.2251 82.0631 67.2251 82.0631" stroke="black" stroke-width="2" stroke-linecap="round" stroke-linejoin="round"/>
<circle cx="33.4597" cy="77.6707" r="3.86111" fill="black"/>
<circle cx="74.8289" cy="77.6707" r="3.86111" fill="black"/>
<path d="M48.9043 101.944C48.9043 101.944 51.9136 96.8355 54.9718 96.9796C57.8666 97.116 60.4876 101.944 60.4876 101.944" stroke="black" stroke-width="2" stroke-linecap="round" stroke-linejoin="round"/>
<path d="M44.4053 114.081L40.0791 111.692C40.0791 111.692 47.212 121.196 54.1392 121.245C60.4073 121.29 67.6585 113.603 67.6585 113.603L63.8731 115.036C63.8731 115.036 61.8471 110.289 59.0061 110.259C56.5984 110.234 54.1392 113.603 54.1392 113.603C54.1392 113.603 52.3975 110.648 50.3538 110.259C47.5457 109.725 44.4053 114.081 44.4053 114.081Z" stroke="black" stroke-width="2" stroke-linecap="round" stroke-linejoin="round"/>
<path d="M105.07 32.3004C109.742 43.4573 109.707 63.2692 109.707 63.2692C109.707 63.2692 105.962 60.5548 104.011 60.5413C101.52 60.524 99.2442 64.9712 99.2442 64.9712L91.2997 40.0528L85.4737 47.2514L80.7069 37.2841L76.4699 46.6977L72.2328 40.0528L68.5253 47.2514L64.2882 40.0528L59.5215 47.8052L54.7548 40.0528L52.6363 46.6977L48.3992 40.0528L44.1621 47.2514L38.8657 38.9453L36.7472 47.2514L29.8619 40.0528L28.8027 47.8052L24.5656 40.0528C24.5656 40.0528 21.3599 44.5974 19.7988 47.8052C16.2273 55.1444 15.0321 68.2937 15.0321 68.2937C15.0321 68.2937 12.9075 62.2794 9.73577 61.6487C4.16587 60.5413 1.52734 64.9712 1.52734 64.9712C1.52734 64.9712 1.84937 48.2738 4.96133 37.2841C12.3626 11.1468 34.0787 -1.08784 60.0512 1.29076C81.0244 3.21152 96.6266 12.1362 105.07 32.3004Z" fill="black" stroke="black" stroke-width="2" stroke-linecap="round" stroke-linejoin="round"/>
</svg>

<?xml version="1.0" encoding="utf-8"?>
<!-- Generator: Adobe Illustrator 28.1.0, SVG Export Plug-In . SVG Version: 6.00 Build 0)  -->
<svg version="1.1" id="Livello_1" xmlns="http://www.w3.org/2000/svg" xmlns:xlink="http://www.w3.org/1999/xlink" x="0px" y="0px"
	 viewBox="0 0 113 141" style="enable-background:new 0 0 113 141;" xml:space="preserve">
<style type="text/css">
	.st0{fill:#FFFFFF;}
	.st1{fill:none;stroke:#C00000;stroke-width:2;stroke-linecap:round;stroke-linejoin:round;}
	.st2{fill:#C00000;stroke:#C00000;stroke-linecap:round;stroke-linejoin:round;}
	.st3{fill:#C00000;}
	.st4{fill:#C00000;stroke:#C00000;stroke-width:2;stroke-linecap:round;stroke-linejoin:round;}
</style>
<path class="st0" d="M24.9,125.1c-7.7-9.5-8.2-17.1-10.3-29.2c-0.4-2.4-0.7-5-0.8-7.7c-3.4,2-10.6,3.2-11.9-8.6
	C0.3,64.9,0.3,63.8,6.1,61.7c4.6-1.7,7.6,1,8.5,2.6c0.9-9,2.2-15.8,2.2-15.8S45.5,22,65.8,27C78.7,30.2,96,46.2,96,46.2
	s1.6,8.1,2.7,18.1c4.1-2.6,12.5-5.2,12.9,5.3c0.5,13.2-2,21.1-7.4,21.1c-4.3,0-5.1-2.4-5-3.7c-1.5,14.3-2.2,21.5-11.9,35.9
	c-8.1,12-18.5,17.3-32.9,17.1C41.2,139.8,33.5,135.6,24.9,125.1z"/>
<path class="st1" d="M99.3,87c-1.5,14.3-2.2,21.5-11.9,35.9c-8.1,12-18.5,17.3-32.9,17.1c-13.4-0.2-21.1-4.4-29.6-14.9
	c-7.7-9.5-8.2-17.1-10.3-29.2c-0.4-2.4-0.7-5-0.8-7.7 M99.3,87c0.7-7,0.3-15.4-0.5-22.8 M99.3,87c-0.1,1.2,0.7,3.7,5,3.7
	c5.4,0,7.9-7.9,7.4-21.1c-0.4-10.6-8.8-7.9-12.9-5.3 M13.8,88.3c-3.4,2-10.6,3.2-11.9-8.6C0.3,64.9,0.3,63.8,6.1,61.7
	c4.6-1.7,7.6,1,8.5,2.6 M13.8,88.3c-0.5-7.9,0.1-16.7,0.8-24 M14.6,64.3c0.9-9,2.2-15.8,2.2-15.8S45.5,22,65.8,27
	C78.7,30.2,96,46.2,96,46.2s1.6,8.1,2.7,18.1"/>
<path class="st2" d="M67.7,63.6l-1.1,2.5h21l-17.7-6.6L67.7,63.6z"/>
<path class="st2" d="M40.1,62.5l1.1,2.5h-21l17.7-6.6L40.1,62.5z"/>
<path class="st1" d="M22.4,75.2c0,0,19-4.6,20.4,3.3c0.3,1.5,0,3.3,0,3.3"/>
<path class="st1" d="M87.6,75.4c0,0-19-4.6-20.4,3.3c-0.3,1.5,0,3.3,0,3.3"/>
<circle class="st3" cx="33.5" cy="77.7" r="3.9"/>
<circle class="st3" cx="74.8" cy="77.7" r="3.9"/>
<path class="st1" d="M48.9,101.9c0,0,3-5.1,6.1-5c2.9,0.1,5.5,5,5.5,5"/>
<path class="st1" d="M44.4,114.1l-4.3-2.4c0,0,7.1,9.5,14.1,9.6c6.3,0,13.5-7.6,13.5-7.6l-3.8,1.4c0,0-2-4.7-4.9-4.8
	c-2.4,0-4.9,3.3-4.9,3.3s-1.7-3-3.8-3.3C47.5,109.7,44.4,114.1,44.4,114.1z"/>
<path class="st4" d="M105.1,32.3c4.7,11.2,4.6,31,4.6,31s-3.7-2.7-5.7-2.7c-2.5,0-4.8,4.4-4.8,4.4l-7.9-24.9l-5.8,7.2l-4.8-10
	l-4.2,9.4l-4.2-6.6l-3.7,7.2l-4.2-7.2l-4.8,7.8l-4.8-7.8l-2.1,6.6l-4.2-6.6l-4.2,7.2l-5.3-8.3l-2.1,8.3l-6.9-7.2l-1.1,7.8l-4.2-7.8
	c0,0-3.2,4.5-4.8,7.8C16.2,55.1,15,68.3,15,68.3s-2.1-6-5.3-6.6C4.2,60.5,1.5,65,1.5,65S1.8,48.3,5,37.3c7.4-26.1,29.1-38.4,55.1-36
	C81,3.2,96.6,12.1,105.1,32.3z"/>
</svg>
